static/icons/icon-quote.svg

<svg height="33" viewBox="0 0 43 33" width="43" xmlns="http://www.w3.org/2000/svg"><path d="m208.644 2536.23c-9.394 4.392-15.006 12.566-15.006 21.594 0 6.344 3.904 10.98 9.272 10.98 4.636 0 8.296-3.416 8.296-7.93 0-3.416-2.196-6.222-5.49-7.076l-.963276-.22139c-2.840366-.67114-2.940724-.93619-2.940724-2.70661 0-4.27 3.172-8.296 9.272-11.712zm23.912 0 2.44 2.928c-5.970213 3.34332-9.135696 7.27096-9.267695 11.43978l-.004305.27222c0 1.952.122 2.074 3.904 2.928 3.294.854 5.49 3.66 5.49 7.076 0 4.514-3.66 7.93-8.296 7.93-5.368 0-9.272-4.636-9.272-10.98 0-9.028 5.612-17.202 15.006-21.594z" fill="#ff6100" transform="translate(-193 -2536)"/></svg>

<?xml version="1.0" encoding="UTF-8"?>
<svg width="43px" height="33px" viewBox="0 0 43 33" version="1.1" xmlns="http://www.w3.org/2000/svg" xmlns:xlink="http://www.w3.org/1999/xlink">
    <!-- Generator: Sketch 58 (84663) - https://sketch.com -->
    <title>icon-quote</title>
    <desc>Created with Sketch.</desc>
    <g id="Specs" stroke="none" stroke-width="1" fill="none" fill-rule="evenodd">
        <g id="Desktop-1360" transform="translate(-193.000000, -2536.000000)" fill="#FF6100" fill-rule="nonzero">
            <path d="M208.644,2536.23 C199.25,2540.622 193.638,2548.796 193.638,2557.824 C193.638,2564.168 197.542,2568.804 202.91,2568.804 C207.546,2568.804 211.206,2565.388 211.206,2560.874 C211.206,2557.458 209.01,2554.652 205.716,2553.798 L204.752724,2553.57661 C201.912358,2552.90547 201.812,2552.64042 201.812,2550.87 C201.812,2546.6 204.984,2542.574 211.084,2539.158 L208.644,2536.23 Z M232.556,2536.23 L234.996,2539.158 C229.025787,2542.50132 225.860304,2546.42896 225.728305,2550.59778 L225.724,2550.87 C225.724,2552.822 225.846,2552.944 229.628,2553.798 C232.922,2554.652 235.118,2557.458 235.118,2560.874 C235.118,2565.388 231.458,2568.804 226.822,2568.804 C221.454,2568.804 217.55,2564.168 217.55,2557.824 C217.55,2548.796 223.162,2540.622 232.556,2536.23 Z" id="icon-quote"></path>
        </g>
    </g>
</svg>
